X: 199
M: C|
L: 1/8
K: G
|:\
g4 d<BA<G | D<GG>A {c}B2A>G |\
edcB cBAG | D<GG>A {c}B2A<G :|
|:\
c3d edcB | B3c dcBA |\
gfed edcB | c/B/c/d/ eE [f2F2][eE][dD] |\
[gG][fF][eE][dD] [eE][dD][cC][BB,] | [GG,2]GGA {c}B2A<G :|

